assets/icon/icon-media/facebook-square-fill.svg

<?xml version="1.0" encoding="UTF-8"?>
<!--Generator: Apple Native CoreSVG 175.5-->
<!DOCTYPE svg
PUBLIC "-//W3C//DTD SVG 1.1//EN"
       "http://www.w3.org/Graphics/SVG/1.1/DTD/svg11.dtd">
<svg version="1.1" xmlns="http://www.w3.org/2000/svg" xmlns:xlink="http://www.w3.org/1999/xlink" width="17.9981" height="18.0106">
 <g>
  <rect height="18.0106" opacity="0" width="17.9981" x="0" y="0"/>
  <path d="M12.7006 0C17.6137 0 17.9981 0.384482 17.9981 5.29753L17.9981 12.7006C17.9981 17.6136 17.6137 17.9981 12.7006 17.9981L11.7607 17.9981L11.7607 11.4459L14.0707 11.4459L14.4338 8.8497L11.7607 8.8497C11.7607 8.8497 11.7567 7.32966 11.7607 6.95044C11.7683 6.20861 12.3878 5.833 12.9203 5.83855C13.4528 5.84406 14.5556 5.8404 14.5556 5.8404L14.5556 3.44797C14.5556 3.44797 13.6004 3.32439 12.5985 3.31399C11.7567 3.3053 10.8271 3.53303 10.0768 4.28906C9.31379 5.05795 9.19339 6.20298 9.1789 7.60234C9.17473 8.00709 9.1789 8.8497 9.1789 8.8497L6.91847 8.8497L6.91847 11.4459L9.1789 11.4459L9.1789 17.9981L5.2975 17.9981C0.384482 17.9981 0 17.6136 0 12.7006L0 5.29753C0 0.384482 0.384482 4.64703e-09 5.2975 4.64703e-09L12.7006 4.64703e-09Z" fill="#0a84ff"/>
 </g>
</svg>

<?xml version="1.0" encoding="utf-8"?>
<!-- Generator: Adobe Illustrator 28.0.0, SVG Export Plug-In . SVG Version: 6.00 Build 0)  -->
<svg version="1.1" id="Layer_1" xmlns="http://www.w3.org/2000/svg" xmlns:xlink="http://www.w3.org/1999/xlink" x="0px" y="0px"
	 viewBox="0 0 18 18" style="enable-background:new 0 0 18 18;" xml:space="preserve">
<style type="text/css">
	.st0{fill-opacity:0;}
	.st1{fill:#0083C4;}
</style>
<g>
	<rect class="st0" width="18" height="18"/>
	<path class="st1" d="M12.7,0C17.6,0,18,0.4,18,5.3v7.4c0,4.9-0.4,5.3-5.3,5.3h-0.9v-6.6h2.3l0.4-2.6h-2.7c0,0,0-1.5,0-1.9
		c0-0.7,0.6-1.1,1.2-1.1c0.5,0,1.6,0,1.6,0V3.4c0,0-1-0.1-2-0.1c-0.8,0-1.8,0.2-2.5,1C9.3,5.1,9.2,6.2,9.2,7.6c0,0.4,0,1.2,0,1.2
		H6.9v2.6h2.3V18H5.3C0.4,18,0,17.6,0,12.7V5.3C0,0.4,0.4,0,5.3,0C5.3,0,12.7,0,12.7,0z"/>
</g>
</svg>
